X:1
T: The Petticoat's Loose
C:
R:Jig
Q:180
K:Gm
M:6/8
L:1/16
|:A2|B4G2 A2F2D2|B4G2 A2F2D2|F4F2 F4c2|F4F2 F4A2|
B4G2 A2F2D2|B4G2 A2F2D2|G4G2 G4d2|G4G2G4:|
|:A2|B2c2d2 c2B2A2|B2A2G2 A2F2D2|f2g2f2 f2c2A2|f2g2f2 f2c2A2|
|1B2c2d2 c2B2A2|B2A2G2 A2F2D2|g2a2g2 g2d2B2|g2a2g2 g2d2A2:|
|2B2c2d2 c2d2e2|d2c2B2 c2B2A2|G4G2 G4d2|G4G2 G4||
